logos/arduino.svg

<svg viewBox="0 0 52 25" fill="none" xmlns="http://www.w3.org/2000/svg">
  <path fill-rule="evenodd" clip-rule="evenodd" d="M51.25 12.5C51.25 5.60219 45.5773 0 38.6242 0C37.984 0 37.3261 0.0364964 36.6859 0.145985C31.2799 0.930657 27.6522 4.92701 25.625 7.9927C23.5978 4.92701 19.9701 0.930657 14.5641 0.145985C13.9239 0.0547445 13.266 0 12.6258 0C5.65493 0 0 5.60219 0 12.5C0 19.3978 5.67271 25 12.6258 25C13.266 25 13.9239 24.9635 14.5819 24.854C19.9879 24.0511 23.6155 20.0547 25.6428 16.9891C27.67 20.0547 31.2977 24.0511 36.7037 24.854C37.3439 24.9453 38.0018 25 38.6598 25C45.5773 25 51.25 19.3978 51.25 12.5ZM13.9416 20.4744C13.4971 20.5474 13.0525 20.5657 12.6079 20.5657C8.01996 20.5657 4.30336 16.9343 4.30336 12.5C4.30336 8.04744 8.03774 4.4343 12.6257 4.4343C13.0703 4.4343 13.5148 4.4708 13.9594 4.52554C19.0631 5.27372 22.1751 10.4379 23.242 12.5C22.1573 14.5803 19.0275 19.7263 13.9416 20.4744ZM37.2905 4.52554C32.1868 5.27372 29.057 10.4379 28.0079 12.5C29.057 14.562 32.1868 19.7263 37.2905 20.4744C37.735 20.5292 38.1796 20.5657 38.6242 20.5657C43.1944 20.5657 46.9287 16.9525 46.9287 12.5C46.9287 8.06569 43.2121 4.4343 38.6242 4.4343C38.1796 4.4343 37.735 4.4708 37.2905 4.52554ZM9.06449 11.161H16.7004V13.5642H9.06449V11.161ZM42.1479 13.5817H39.5728V16.1077H37.1049V13.5817H34.5298V11.161H37.1049V8.63499H39.5728V11.161H42.1479V13.5817Z" fill="currentColor"/>
</svg>

<svg viewBox="0 0 52 25" fill="none" xmlns="http://www.w3.org/2000/svg"><path fill-rule="evenodd" clip-rule="evenodd" d="M51.25 12.5C51.25 5.602 45.577 0 38.624 0c-.64 0-1.298.036-1.938.146-5.406.785-9.034 4.781-11.061 7.847C23.598 4.927 19.97.93 14.565.146A13.86 13.86 0 0012.624 0C5.656 0 0 5.602 0 12.5S5.673 25 12.626 25c.64 0 1.298-.037 1.956-.146 5.406-.803 9.034-4.8 11.06-7.865 2.028 3.066 5.656 7.062 11.062 7.865.64.091 1.298.146 1.956.146 6.917 0 12.59-5.602 12.59-12.5zm-37.308 7.974c-.445.073-.89.092-1.334.092-4.588 0-8.305-3.632-8.305-8.066 0-4.453 3.735-8.066 8.323-8.066.444 0 .889.037 1.333.092 5.104.748 8.216 5.912 9.283 7.974-1.085 2.08-4.215 7.226-9.3 7.974zM37.29 4.526c-5.104.748-8.234 5.912-9.283 7.974 1.049 2.062 4.179 7.226 9.283 7.974.444.055.889.092 1.333.092 4.57 0 8.305-3.613 8.305-8.066 0-4.434-3.717-8.066-8.305-8.066-.444 0-.889.037-1.334.092zM9.064 11.16H16.7v2.403H9.064v-2.403zm33.084 2.42h-2.575v2.527h-2.468v-2.526H34.53V11.16h2.575V8.635h2.468v2.526h2.575v2.42z" fill="currentColor"/></svg>
